X:1
T:Il est bel et bon
T:Il est bel et bon
T:Pierre Passereau
C:Pierre Passereau
%%score [ 1 2 3 4 ]
L:1/8
Q:1/2=120
M:2/2
K:Bmin
V:1 treble nm="Soprano" snm="S"
V:2 treble nm="Alto" snm="A"
V:3 treble-8 nm="Tenor" snm="T"
V:4 bass nm="Bass" snm="B"
V:1
 EFGA B2 B2 | B2 B2 B2 B2 | A2 F2 z4 | EFGA B2 B2 | B2 B2 B2 B2 | A2 FF A2 FF | G2 E2 E2 ^D2 | %7
w: Il est bel et bon, bon,|bon, bon bon com-|me- re,|il est bel et bon, bon,|bon, bon, bon- com-|me- re, com- me- re, mon|ma- ri. mon ma-|
 E4 e3 d | c2 d2 A2 B2 | d3 c B2 A2 | B8 | z8 | z8 | EFGA B2 B2 | B2 B2 B2 B2 | A2 F2 z4 | %16
w: ri. Il e-|stoit deux fem- mes|tou- tes tes de|ys,|||Il est bel et bon, bon,|bon, bon, bon, com-|me- re,|
 EFGA B2 B2 | B2 B2 B2 B2 | A2 FF A2 FF | G2 E2 E2 ^D2 | E4 E3 E | B2 B2 A2 A2 | e6 d2 | %23
w: il est bel et bon, bon,|bon, bon, bon, com-|me- re, com- me- re, com-|me- re mon ma-|ri. Il ne|me cou- rous- se,|ne me|
 c2 c2 B4- | B4 z4 | z8 | z4 B3 B | B2 B2 A2 F2 | c3 c e2 e2 | d2 B2 z4 | c3 c e2 e2 | %31
w: bat aus- si,|_||Il faict|le mai- na- ge,|il don- ne aux|pou- lat,|il don- ne aux|
 d2 B2 z2 A2 | B3 A G2 F2- | FE E4 ^D2 | E2 E2 B4- | B2 G2 B3 c | d4 A4- | A4 z2 E2 | B6 G2 | %39
w: pou- lat, et|je _ _ prends|_ _ me plai-|sir. Com- me-|* reest- ce po-|ri- re,|_ quant|les poul-|
 B3 c d4 | A4 z2 A2 | c2 c2 B3 A | G4 F4 | z2 F2 B2 AF | G2 FA B2 AF | G2 FA B2 AF | G2 FA B2 AF | %47
w: leil- les cri-|ent, quant|les poul- leil- les|cri- ent:|'Pe- ti- te co-|quet- te, pe- ti- te co-|quet- te, pe- ti- te co-|quet- te, pe- ti- te co-|
 G2 F3 E E2- | E2 ^D2 E4 | EFGA B2 B2 | B2 B2 B2 B2 | A2 F2 z4 | EFGA B2 B2 | B2 B2 B2 B2 | %54
w: quet- te, _ qu'es-|* se cy?'|Il est bel et bon, bon,|bon, bon, bon, com-|me- re,|Il est bel et bon, bon,|bon, bon, bon, com-|
 A2 FF A2 FF | G2 E2 E2 ^D2 | E8 |] %57
w: me- re com- me- re, com-|me- re mon ma-|ri.|
V:2
 z8 | B,CDE F2 F2 | F2 F2 F2 F2 | G4 F4 | B,CDE F2 F2 | F2 F2 C2 CC | E2 B,2 B,2 B,2 | B,4 z4 | %8
w: |Il est bel et bon, bon,|bon, bon bon com-|me- re,|il est bel et bon, bon,|bon, bon, bon- bon- com-|me- re, mon ma-|ri.|
 A3 G F2 G2 | D2 E2 G3 F | E2 D2 E4 | z8 | z8 | z8 | B,CDE F2 F2 | F2 F2 F2 F2 | G4 F4 | %17
w: Il e- stoit deux|fem- mes tou- tes|de pa- ys,||||Il est bel et bon, bon,|bon, bon, bon, com-|me- re,|
 B,CDE F2 F2 | F2 F2 C2 CC | E2 B,2 B,2 B,2 | B,4 z4 | B,3 B, F2 F2 | E2 E2 B4- | B2 A2 G2 G2 | %24
w: il est bel et bon, bon,|bon, bon, bon, bon, com-|me- re mon ma|ri.|Il ne me cou-|rous- se, ne|_ me bat aus-|
 F8 | z8 | z8 | z4 A3 A | A2 A2 G2 E2 | z4 F3 F | A2 A2 G2 E2 | z2 B,2 C2 D2- | DC D2 E4 | %33
w: si.|||Il faict|le mai- na- ge,|il faict|le mai- na- ge|et je prends|_ _ _ me|
 B,2 A,2 B,4 | B,8 | z2 B,2 F4- | F2 D2 F3 G | A4 E4- | E4 z2 B,2 | F6 D2 | F3 G A4 | E8 | %42
w: plai- * *|sir,|com- me-|* reest- ce po-|ri- re,|_ quant|les poul-|leil- les cri-|ent:|
 z4 D2 D2 | D2 D2 D2 DD | DDDD D2 DD | DDDD DD D2 | DDDD D2 D2 | D2 DD D2 B,2 | B,2 B,2 B,4- | %49
w: 'Co co|co co da, co co|co co co co da, co co|co co co co co co da,|co co co co da, pe-|ti- te, co- quet- te,|qu'es- se cy?'|
 B,8 | B,CDE F2 F2 | F2 F2 F2 F2 | G4 F4 | B,CDE F2 F2 | F2 F2 C2 CC | E2 B,2 B,2 B,2 | B,8 |] %57
w: _|Il est bel et bon, bon,|bon, bon, bon, com-|me- re,|il est bel et bon, bon,|bon, bon, bon, bon, com-|me- re mon ma-|ri.|
V:3
 z4 EFGA | B2 B2 d2 d2 | c2 c2 A4 | B4 BAGA | B2 B2 d2 d2 | c4 A2 A2 | B3 A G2 F2 | E8 | z8 | z8 | %10
w: Il est bel et|bon, bon, bon, bon,|bon com- me-|re, il est bel et|bon, bon, bon, bon,|bon, bon com-|me- re mon ma-|ri.|||
 z4 e3 d | c2 d2 A2 B2 | d3 c B2 A2 | B4 EFGA | B2 B2 d2 d2 | c2 c2 A4 | B4 BAGA | B2 B2 d2 d2 | %18
w: Di- sans|l'ung a l'au- tre:|'A- vez bon ma-|ri?' Il est bel et|bon, bon, bon, bon,|bon com- me-|re, il est bel et|bon, bon, bon, bon,|
 c4 A2 A2 | B3 A G2 F2 | E8 | z8 | z8 | z4 E3 E | B2 B2 A2 A2 | e6 d2 | c2 c2 B4 | d3 d d2 d2 | %28
w: bon, bon com-|me- re mon ma|ri.|||Il ne|me cou- rous- se,|ne me|bat aus- si,|il faict le mai-|
 c2 A2 z4 | B3 B d2 d2 | c2 A2 z4 | z2 B2 f3 e | d3 c B2 A2- | AGFE F4 | E4 z2 E2 | B6 G2 | %36
w: na- ge,|il faict le mai-|na- ge,|et je _|prends _ _ me|_ _ _ _ plai-|sir. Com-|me- reest-|
 B3 c d4 | A4 z4 | z2 E2 B4- | B2 G2 B3 c | d4 A4 | z2 A2 G2 E2 | G2 G2 A4 | F4 z2 F2 | %44
w: ce po- ri-|re,|quant les|_ poul- leil- les|cri- ent,|quant les poul-|leil- les cri-|ent: 'Pe-|
 B2 AF G2 FA | B2 AF G2 FA | B2 AF G2 FA | B2 AA A2 G2 | F2 F2 E4- | E4 EFGA | B2 B2 d2 d2 | %51
w: ti- te co- quet- te, pe-|ti- te co- quet- te, pe-|ti- te co- quet- te, pe-|ti- te co- quet- te,|qu'es- se cy?'|_ Il est bel et|bon, bon, bon, bon,|
 c2 c2 A4 | B4 BAGA | B2 B2 d2 d2 | c4 A2 A2 | B3 A G2 F2 | E8 |] %57
w: bon, com- me-|re, il est bel et|bon, bon, bon, bon,|bon, bon, com-|me- re mon ma-|ri.|
V:4
 z8 | z4 B,,C,D,E, | F,2 F,2 F,2 F,2 | E,4 B,,4- | B,,4 B,,C,D,E, | F,2 F,2 F,2 F,2 | %6
w: |Il est bel et|bon, bon, bon, com-|me- re,|_ il est bel et|bon, bon, bon com-|
 E,2 E,2 B,,2 B,,2 | E,8 | z8 | z8 | z8 | A,3 G, F,2 G,2 | D,2 E,2 G,3 F, | E,2 D,2 E,4- | %14
w: me- re mon ma-|ri.||||Di- sans l'ung a|l'au- tre: 'A- vez|bon ma- ri?'|
 E,4 B,,C,D,E, | F,2 F,2 F,2 F,2 | E,4 B,,4- | B,,4 B,,C,D,E, | F,2 F,2 F,2 F,2 | %19
w: _ Il est bel et|bon, bon, bon, com-|me- re,|_ il est bel et|bon, bon, bon, com-|
 E,2 E,2 B,,2 B,,2 | E,8- | E,4 z4 | z8 | z8 | B,,3 B,, F,2 F,2 | E,2 E,2 B,4- | B,2 A,2 G,4 | %27
w: me- re mon ma-|ri|_|||Il ne me cou-|rous- se, ne|_ me bat|
 G,4 F,4 | z4 E,3 E, | G,2 G,2 F,2 D,2 | z4 E,3 E, | G,2 G,2 F,2 D,2 | z2 B,,2 E,2 A,,2 | %33
w: aus- si,|il faict|le mai- na- ge,|il faict|le mai- na- ge,|et je prends|
 B,,2 =C,2 B,,4 | E,8- | E,4 z2 B,,2- | B,,2 F,4 D,2 | F,3 G, A,4 | E,8 | z2 B,,4 F,2- | %40
w: me _ plai-|sir|_ Com-|* me- reest-|ce po- ri-|re,|quant les|
 F,2 D,2 F,3 G, | A,4 E,4- | E,4 z2 D,2 | D,D,D,D, G,2 D,D, | G,2 D,D, G,G,D,D, | %45
w: _ poul- leil- les|cri- ent:|_ 'Co|co co co co da, co co|da, co co co co co co|
 G,2 D,D, G,G,D,D, | G,2 D,D, G,2 D,2 | G,2 D,D, D,2 E,2 | B,,2 B,,2 E,4- | E,8- | E,4 B,,C,D,E, | %51
w: da, co co co co co co|da, co co da, pe-|ti- te co- quet- te,|qu'es- se cy?'|_|* Il est bel et|
 F,2 F,2 F,2 F,2 | E,4 B,,4- | B,,4 B,,C,D,E, | F,2 F,2 F,2 F,2 | E,2 E,2 B,,2 B,,2 | E,8 |] %57
w: bon, bon, bon, com-|me- re|_ il est bel et|bon, bon, bon, com-|me- re mon ma-|ri.|

